X: 7249
T: Clapton, The
R: jig
M: 6/8
K: Adorian
From Capercaillie's "Delirium", played after this http://www.thesession.org/tunes/display/3889. Variation for final bar is|~e3 ~g3||. Also appears on Dervish's "Boys Of Sligo" in the following setting:
age a2b|ged BAG|age age|def ~g3|
age a2b|ged BAG|~c3 ~d3|1 ede ~g3:|2 ege dBA||
|:~d3 cAG|A/c/dA cAG|A/c/dA cAG|~E3 GEG|
A2d cAG|A/c/dA cAG|1 A/c/dA cAG|~E3 D3:|2 ~c3 ~d3|ede ~g3||

